src/pos-icons/medal.svg

<svg height="24" viewBox="0 0 24 24" width="24" xmlns="http://www.w3.org/2000/svg"><path d="m20 2h-16v2l5.81 4.36c-3.67 1.21-5.67 5.17-4.46 8.84s5.15 5.67 8.84 4.46c3.67-1.21 5.67-5.16 4.46-8.84-.7-2.11-2.35-3.77-4.46-4.46l5.81-4.36zm-5.06 17.5-2.94-1.72-2.94 1.72.78-3.33-2.59-2.24 3.41-.29 1.34-3.14 1.34 3.14 3.41.29-2.59 2.24z"/></svg>

<?xml version="1.0" encoding="UTF-8"?><!DOCTYPE svg PUBLIC "-//W3C//DTD SVG 1.1//EN" "http://www.w3.org/Graphics/SVG/1.1/DTD/svg11.dtd"><svg xmlns="http://www.w3.org/2000/svg" xmlns:xlink="http://www.w3.org/1999/xlink" version="1.1" id="mdi-medal" width="24" height="24" viewBox="0 0 24 24"><path d="M20,2H4V4L9.81,8.36C6.14,9.57 4.14,13.53 5.35,17.2C6.56,20.87 10.5,22.87 14.19,21.66C17.86,20.45 19.86,16.5 18.65,12.82C17.95,10.71 16.3,9.05 14.19,8.36L20,4V2M14.94,19.5L12,17.78L9.06,19.5L9.84,16.17L7.25,13.93L10.66,13.64L12,10.5L13.34,13.64L16.75,13.93L14.16,16.17L14.94,19.5Z" /></svg>
